X:1
T:50
T:Hugo Distler
T:Eduard Mörike (1848)
T:50.  Lord, Grant Us What You Will Herr, schicke was du wilt Prayers
T:Bärenreiter
T:Bärenreiter
T:Bärenreiter
T:Bärenreiter
C:Hugo Distler
Z:Eduard Mörike (1848)
Z:Bärenreiter
%%score [ 1 ( 2 3 ) 4 ]
L:1/8
Q:1/4=72
M:none
K:C
V:1 treble nm="1" snm="1"
V:2 treble nm="2" snm="2"
V:3 treble 
V:4 treble nm="3" snm="3"
V:1
"^Slowly (Ruhig)" x8 x10 | x8 !fermata!z8 x2 | x28 || %3
w: |||
[M:4/4][Q:1/4=88]"^Allegro moderato (Mäßig schnell)" z8 | z4 z2!mf! B2 | B2 d2 (A2 B2- | %6
w: |I|am con- tent _|
 !breath!B)B c4 B2 | z2 B2 (d2 c2) | !breath!B2 B2 ^c2 e2 | (^c2 d4 B2- | B2)!>(! B2 ^c4!>)! || %11
w: _ that both flow,|that both _|flow from Your own|hands _ _|_ and will.|
[Q:1/4=72]"^Tempo I" z16 | z18 | z28 || %14
w: |||
[M:3/4][Q:1/4=80]"^Quietly, tenderly (Leicht und zart)"!p! B2 B2 B2 | B2 !breath!B2 B2 | B2 B2 B2 | %17
w: Pray, not with|glad- ness, and|pray, not with|
 B2 !breath!B2 B2 | B2 B2 B2 |[M:4/4]!>(! ^c4!>)! !breath!!fermata!c4 | %20
w: sad- ness, would|You o- ver-|whelm us!|
"^meno"!p!"^poco ritardando al" ^c4 c2 c2 | e2 ^c4 c2 | d4 B2 B2 | (=c4 A4) | E8 || %25
w: Mid- way be-|tween those lies|sweet- est pro-|por- *|tion.|
[Q:1/4=72]"^Tempo I" z18 | z18 | z28 |] %28
w: |||
V:2
!p! A4 (A4 c2) A2 G2 D2 !breath!A2 | A2 (d4 e3 dcA G2) G2 !breath!A2 | %2
w: Lord, grant _ us what You will|of joy- * * * * * ful times|
 A2 B2 (G4 E4!>(! D2 C2 E4) B8!>)! ||[M:4/4] z8 | z2!mf! E2 E2 G2 | (D2 E3 D C2 | %6
w: or of sor- * * * * row!||I am con-|tent _ _ _|
 !breath!B,)B, E4 B,2 | z2 B,2 E4 | !breath!B,2 B2 A2 G2 | (B4 A2 ^F2- | %10
w: _ that both flow,|that both|flow from Your own|hands _ _|
 F2)!>(! D2 !breath!E2!>)!!p! A2- || !breath!A2 (A4 c2) A2 G2 D2 !breath!A2 | %12
w: _ and will. Lord,|* grant _ us what You will|
 A2 (d4 e3 dcA G2) G2 !breath!A2 | A2 B2 (G4 E4!>(! D2 C2 E4) B8!>)! ||[M:3/4]!p! G2 F2 A2 | %15
w: of joy- * * * * * ful times|or of sor- * * * * row!|Pray, not with|
 E2 !breath!EE G2- | G2 F2 A2 | E2 !breath!E2 A2 | G2 G2 G2 | %19
w: glad- ness, and pray,|_ not with|sad- ness, would|You o- ver-|
[M:4/4]!>(! ^F4!>)! !breath!!fermata!^G4 |"^meno"!p! A4 A2 A2 | B2 B4 ^c2 | A4 =G2 A2 | (G4 ^F4) | %24
w: whelm us!|Mid- way be-|tween those lies|sweet- est pro-|por- *|
 E8 ||!p! !breath!A4 (A4 c2) A2 G2 D2 !breath!A2 | A2 (d4 e3 dcA G2) G2 !breath!A2 | %27
w: tion.|Lord, grant _ us what You will|of joy- * * * * * ful times|
 A2 B2 (G4 E4!>(! D2 C2 E4) B8!>)! |] %28
w: or of sor- * * * * row!|
V:3
 x18 | x18 | x28 ||[M:4/4] x8 | x8 | x8 | x B, A,4 B,2 | x2 B,2 A,4 | B,2 x6 | x8 | x8 || x16 | %12
 x18 | x28 ||[M:3/4] x6 | x6 | x6 | x6 | x6 |[M:4/4] x8 | x8 | x8 | x8 | x8 | x8 || x18 | x18 | %27
 x28 |] %28
V:4
 x18 | x8 !fermata!z8 x2 | x28 ||[M:4/4] z2!mf! B,2 B,2 D2 | (A,2 !breath!B,3) B, (^F2- | %5
w: |||I am con-|tent _ that both|
 F2 A2 ^F4) | !breath!EE G4 ^F2 | z2 E2 (A2 G2) | !breath!^F4 F2 F2- | F2 ^FF F2 F2 | %10
w: _ _ _|flow, that both flow,|that both _|flow, that both|_ flow from Your own|
 E2!>(! A2 A4!>)! || z16 | z18 | z28 ||[M:3/4]!p! E2 E2 D2 | B,2 !breath!B,2 A,2 | E2 E2 D2 | %17
w: hands and will.||||Pray, not with|glad- ness, and|pray, not with|
 B,2 !breath!B,2 A,2 | E2 D2 D2 |[M:4/4]!>(! ^C4!>)! !breath!!fermata!^F4 |"^meno"!p! ^F4 F2 F2 | %21
w: sad- ness, would|You o- ver-|whelm us!|Mid- way be-|
 E2 ^F4 F2 | D4 E2 E2 | (=C4 D4) | E8 || z18 | z18 | z28 |] %28
w: tween those lies|sweet- est pro-|por- *|tion.||||

